app/[lang]/(home)/(new-home)/assets/stacks-appicons/python.svg

<svg width="16" height="16" viewBox="0 0 16 16" fill="none" xmlns="http://www.w3.org/2000/svg">
<path d="M7.9728 1.31458C4.56066 1.31458 4.77371 2.79428 4.77371 2.79428L4.7775 4.3273H8.03364V4.78756H3.48421C3.48421 4.78756 1.30078 4.53993 1.30078 7.98275C1.30078 11.4257 3.20653 11.3036 3.20653 11.3036H4.34388V9.70593C4.34388 9.70593 4.28256 7.80018 6.21921 7.80018H9.44872C9.44872 7.80018 11.2632 7.82949 11.2632 6.04658V3.09864C11.2632 3.09864 11.5387 1.31458 7.9728 1.31458ZM6.17737 2.3455C6.25431 2.34543 6.33051 2.36054 6.40161 2.38995C6.47272 2.41936 6.53732 2.46251 6.59173 2.51692C6.64614 2.57133 6.68928 2.63593 6.71869 2.70703C6.74811 2.77813 6.76321 2.85433 6.76314 2.93128C6.76321 3.00822 6.74811 3.08443 6.71869 3.15553C6.68928 3.22663 6.64614 3.29123 6.59173 3.34564C6.53732 3.40005 6.47272 3.44319 6.40161 3.47261C6.33051 3.50202 6.25431 3.51713 6.17737 3.51706C6.10042 3.51713 6.02422 3.50202 5.95312 3.47261C5.88201 3.44319 5.81741 3.40005 5.763 3.34564C5.7086 3.29123 5.66545 3.22663 5.63604 3.15553C5.60662 3.08443 5.59152 3.00822 5.59159 2.93128C5.59152 2.85433 5.60662 2.77813 5.63604 2.70703C5.66545 2.63593 5.7086 2.57133 5.763 2.51692C5.81741 2.46251 5.88201 2.41936 5.95312 2.38995C6.02422 2.36054 6.10042 2.34543 6.17737 2.3455Z" fill="url(#paint0_linear_98_809)"/>
<path d="M8.06976 14.6855C11.4819 14.6855 11.2688 13.2058 11.2688 13.2058L11.2651 11.6728H8.00886V11.2125H12.5583C12.5583 11.2125 14.7417 11.4602 14.7417 8.01723C14.7417 4.57436 12.836 4.69646 12.836 4.69646H11.6986V6.29406C11.6986 6.29406 11.7599 8.19981 9.8233 8.19981H6.59379C6.59379 8.19981 4.77935 8.17049 4.77935 9.95345V12.9014C4.77935 12.9014 4.50383 14.6855 8.0697 14.6855M9.86514 13.6546C9.78819 13.6547 9.71199 13.6396 9.64089 13.6102C9.56979 13.5808 9.50519 13.5376 9.45078 13.4832C9.39637 13.4288 9.35322 13.3642 9.32381 13.2931C9.2944 13.222 9.27929 13.1458 9.27936 13.0689C9.27929 12.9919 9.29439 12.9157 9.3238 12.8446C9.35321 12.7735 9.39635 12.7089 9.45076 12.6545C9.50517 12.6001 9.56977 12.5569 9.64088 12.5275C9.71198 12.4981 9.78819 12.483 9.86514 12.483C9.94208 12.483 10.0183 12.4981 10.0894 12.5275C10.1605 12.5569 10.2251 12.6 10.2795 12.6544C10.3339 12.7089 10.3771 12.7735 10.4065 12.8446C10.4359 12.9157 10.451 12.9919 10.4509 13.0688C10.451 13.1458 10.4359 13.222 10.4065 13.2931C10.3771 13.3642 10.3339 13.4288 10.2795 13.4832C10.2251 13.5376 10.1605 13.5807 10.0894 13.6101C10.0183 13.6396 9.94208 13.6547 9.86514 13.6546Z" fill="url(#paint1_linear_98_809)"/>
<defs>
<linearGradient id="paint0_linear_98_809" x1="130.467" y1="121.579" x2="796.556" y2="781.023" gradientUnits="userSpaceOnUse">
<stop stop-color="#387EB8"/>
<stop offset="1" stop-color="#366994"/>
</linearGradient>
<linearGradient id="paint1_linear_98_809" x1="195.429" y1="210.271" x2="910.732" y2="886.47" gradientUnits="userSpaceOnUse">
<stop stop-color="#FFE052"/>
<stop offset="1" stop-color="#FFC331"/>
</linearGradient>
</defs>
</svg>

<svg xmlns="http://www.w3.org/2000/svg" fill="none" viewBox="0 0 16 16">
  <path
    fill="url(#a)"
    d="M7.97 1.31c-3.4 0-3.2 1.48-3.2 1.48v1.54h3.26v.46H3.48S1.3 4.54 1.3 7.99c0 3.44 1.9 3.31 1.9 3.31h1.14V9.7s-.06-1.9 1.88-1.9h3.23s1.81.03 1.81-1.75V3.1s.28-1.79-3.29-1.79Zm-1.8 1.04a.59.59 0 1 1 0 1.17.59.59 0 0 1 0-1.17Z"
  />
  <path
    fill="url(#b)"
    d="M8.07 14.69c3.41 0 3.2-1.48 3.2-1.48v-1.54H8v-.46h4.55s2.18.25 2.18-3.2c0-3.44-1.9-3.31-1.9-3.31H11.7v1.6s.06 1.9-1.88 1.9H6.6s-1.81-.03-1.81 1.75v2.95S4.5 14.7 8.07 14.7m1.8-1.04a.58.58 0 1 1 0-1.17.58.58 0 0 1 0 1.17Z"
  />
  <defs>
    <linearGradient
      id="a"
      x1="130.47"
      x2="796.56"
      y1="121.58"
      y2="781.02"
      gradientUnits="userSpaceOnUse"
    >
      <stop stop-color="#387EB8" />
      <stop offset="1" stop-color="#366994" />
    </linearGradient>
    <linearGradient
      id="b"
      x1="195.43"
      x2="910.73"
      y1="210.27"
      y2="886.47"
      gradientUnits="userSpaceOnUse"
    >
      <stop stop-color="#FFE052" />
      <stop offset="1" stop-color="#FFC331" />
    </linearGradient>
  </defs>
</svg>
